X:1
T:Funeral March (Sonata No. 2)
C:Frédéric Chopin, Op.35
M:4/4
L:1/4
Q:1/4=54
K:Bbm
% Marcia funebre – main theme (8 bars)
B,3/2 B,/ B, F, | E, F, B,2 | B,3/2 B,/ B, F, | E, D, B,2 |
B3/2 B/ B F | E F B2 | G3/2 F/ E D | B,4 |]
